app/img/title-arrow-black.svg

<svg width="36" height="36" viewBox="0 0 36 36" fill="none" xmlns="http://www.w3.org/2000/svg">
<mask id="path-1-inside-1" fill="white">
<path fill-rule="evenodd" clip-rule="evenodd" d="M2.29381 16.0282L2.29381 20.6161L26.4712 20.6161L14.3946 32.6927L17.6896 35.9878L32.06 21.6174L32.0602 21.6175L35.3553 18.3225L33.0612 16.0285L33.0612 16.0282L33.0609 16.0282L17.6901 0.657316L14.395 3.95237L26.4708 16.0282L2.29381 16.0282Z"/>
</mask>
<path d="M2.29381 20.6161L1.29381 20.6161L1.29381 21.6161L2.29381 21.6161L2.29381 20.6161ZM2.29381 16.0282L2.29381 15.0282L1.29381 15.0282L1.29381 16.0282L2.29381 16.0282ZM26.4712 20.6161L27.1784 21.3232L28.8855 19.6161L26.4712 19.6161L26.4712 20.6161ZM14.3946 32.6927L13.6875 31.9856L12.9804 32.6927L13.6875 33.3999L14.3946 32.6927ZM17.6896 35.9878L16.9825 36.6949L17.6896 37.402L18.3967 36.6949L17.6896 35.9878ZM32.06 21.6174L32.7672 20.9103L32.06 20.2032L31.3529 20.9103L32.06 21.6174ZM32.0602 21.6175L31.3531 22.3246L32.0602 23.0317L32.7673 22.3246L32.0602 21.6175ZM35.3553 18.3225L36.0624 19.0296L36.7695 18.3225L36.0624 17.6154L35.3553 18.3225ZM33.0612 16.0285L32.0612 16.0273L32.0608 16.4422L32.3541 16.7356L33.0612 16.0285ZM33.0612 16.0282L34.0612 16.0293L34.0624 15.027L33.0601 15.0282L33.0612 16.0282ZM33.0609 16.0282L32.3538 16.7353L32.6472 17.0287L33.0621 17.0282L33.0609 16.0282ZM17.6901 0.657316L18.3972 -0.0497904L17.6901 -0.756897L16.983 -0.0497903L17.6901 0.657316ZM14.395 3.95237L13.6879 3.24527L12.9808 3.95237L13.6879 4.65948L14.395 3.95237ZM26.4708 16.0282L26.4708 17.0282L28.8851 17.0282L27.1779 15.3211L26.4708 16.0282ZM3.29381 20.6161L3.29381 16.0282L1.29381 16.0282L1.29381 20.6161L3.29381 20.6161ZM26.4712 19.6161L2.29381 19.6161L2.29381 21.6161L26.4712 21.6161L26.4712 19.6161ZM25.7641 19.909L13.6875 31.9856L15.1017 33.3999L27.1784 21.3232L25.7641 19.909ZM13.6875 33.3999L16.9825 36.6949L18.3967 35.2807L15.1017 31.9856L13.6875 33.3999ZM18.3967 36.6949L32.7672 22.3245L31.3529 20.9103L16.9825 35.2807L18.3967 36.6949ZM31.3529 22.3245L31.3531 22.3246L32.7673 20.9104L32.7672 20.9103L31.3529 22.3245ZM32.7673 22.3246L36.0624 19.0296L34.6481 17.6154L31.3531 20.9104L32.7673 22.3246ZM36.0624 17.6154L33.7683 15.3214L32.3541 16.7356L34.6481 19.0296L36.0624 17.6154ZM32.0612 16.027L32.0612 16.0273L34.0612 16.0296L34.0612 16.0293L32.0612 16.027ZM33.0621 17.0282L33.0624 17.0282L33.0601 15.0282L33.0598 15.0282L33.0621 17.0282ZM33.7681 15.3211L18.3972 -0.0497904L16.983 1.36442L32.3538 16.7353L33.7681 15.3211ZM16.983 -0.0497903L13.6879 3.24527L15.1021 4.65948L18.3972 1.36442L16.983 -0.0497903ZM13.6879 4.65948L25.7637 16.7353L27.1779 15.3211L15.1021 3.24527L13.6879 4.65948ZM2.29381 17.0282L26.4708 17.0282L26.4708 15.0282L2.29381 15.0282L2.29381 17.0282Z" fill="#17181A" mask="url(#path-1-inside-1)"/>
</svg>

<svg width="36" height="36" fill="none" xmlns="http://www.w3.org/2000/svg"><mask id="a" fill="#fff"><path fill-rule="evenodd" clip-rule="evenodd" d="M2.294 16.028v4.588H26.47L14.395 32.693l3.295 3.295 14.37-14.37 3.295-3.295-2.294-2.294L17.69.656l-3.296 3.295 12.076 12.076H2.294z"/></mask><path d="M2.294 20.616h-1v1h1v-1zm0-4.588v-1h-1v1h1zm24.177 4.588l.707.707 1.707-1.707h-2.414v1zM14.395 32.693l-.707-.707-.708.707.707.707.708-.707zm3.295 3.295l-.707.707.707.707.707-.707-.707-.707zm14.37-14.37l.707-.708-.707-.707-.707.707.707.707zm0 0l-.707.707.707.707.707-.707-.707-.707zm3.295-3.295l.707.707.708-.707-.708-.708-.707.708zm-2.294-2.294l-1-.002v.415l.293.294.707-.707zm0 0h1l.001-1.002-1.002.001.001 1zm0 0l-.707.706.293.294h.415l-.001-1zM17.69.656l.706-.707-.707-.707-.707.707.707.707zm-3.296 3.295l-.707-.707-.707.707.707.707.707-.707zm12.076 12.076v1h2.414l-1.707-1.707-.707.707zM3.294 20.616v-4.588h-2v4.588h2zm23.177-1H2.294v2H26.47v-2zm-.707.293L13.688 31.986l1.414 1.414 12.076-12.077-1.414-1.414zm-12.076 13.49l3.295 3.296 1.414-1.414-3.295-3.295-1.415 1.414zm4.709 3.296l14.37-14.37-1.414-1.415-14.37 14.37 1.414 1.415zm12.956-14.37l1.414-1.415-1.414 1.415zm1.414 0l3.295-3.295-1.414-1.415-3.295 3.295 1.414 1.415zm3.295-4.71l-2.294-2.294-1.414 1.415 2.294 2.294 1.414-1.415zm-4-1.588l2 .003-2-.003zm1 1.001l-.002-2 .002 2zm.706-1.707L18.398-.049l-1.415 1.413 15.37 15.371 1.415-1.414zM16.983-.049l-3.295 3.294 1.414 1.414 3.295-3.295L16.983-.05zm-3.295 4.708l12.076 12.076 1.414-1.414L15.102 3.245 13.688 4.66zM2.294 17.03H26.47v-2H2.294v2z" fill="#17181A" mask="url(#a)"/></svg>
